X: 38081
T: Splendid Isolation
R: reel
M: 4/4
K: Gdorian
|:(E/F/G) AF GdcA|.G/.G/.G AG FGAc|dAcA GABc|dggf g2 ga|
bgag fd ~d2|~f3 g fdcA|GcAG FGAc|dAcA G4:|
|:~g2 ag fd ~d2|gfdc (A/B/c) dc|AG ~G2 Acdc|AG ~G2 .F2 ~F2|
~F2 AF GdcA|.G/.G/.G AG FGAc|dg ~g2 fgag|fdcA G4:|

